svg/aws-ec2-spot.svg

<?xml version="1.0" encoding="UTF-8"?>
<svg xmlns="http://www.w3.org/2000/svg" xmlns:xlink="http://www.w3.org/1999/xlink" width="32" height="32" viewBox="0 0 32 32">
<path fill-rule="evenodd" fill="rgb(83.137255%, 35.686275%, 2.745098%)" fill-opacity="1" d="M 2.449219 16.640625 L 1.332031 16.640625 L 1.332031 15.308594 L 2.449219 15.308594 C 2.566406 12.691406 3.449219 10.164062 4.988281 8.039062 L 6.066406 8.820312 C 4.691406 10.71875 3.902344 12.972656 3.785156 15.308594 L 4.847656 15.308594 L 4.847656 16.640625 L 3.785156 16.640625 C 3.902344 18.976562 4.695312 21.230469 6.066406 23.125 L 4.988281 23.90625 C 3.449219 21.785156 2.566406 19.261719 2.449219 16.640625 M 23.90625 26.960938 C 21.785156 28.5 19.257812 29.382812 16.640625 29.496094 L 16.640625 30.574219 L 15.308594 30.574219 L 15.308594 29.496094 C 12.691406 29.382812 10.164062 28.503906 8.039062 26.964844 L 8.820312 25.882812 C 10.71875 27.257812 12.972656 28.046875 15.308594 28.164062 L 15.308594 27.101562 L 16.640625 27.101562 L 16.640625 28.164062 C 18.976562 28.050781 21.230469 27.257812 23.125 25.882812 Z M 8.039062 4.988281 C 10.164062 3.449219 12.691406 2.566406 15.308594 2.449219 L 15.308594 1.332031 L 16.640625 1.332031 L 16.640625 2.449219 C 19.269531 2.574219 21.769531 3.441406 23.90625 4.988281 L 23.125 6.066406 C 21.230469 4.695312 18.980469 3.898438 16.640625 3.78125 L 16.640625 4.847656 L 15.308594 4.847656 L 15.308594 3.78125 C 12.972656 3.898438 10.71875 4.695312 8.820312 6.066406 Z M 30.613281 16.640625 L 29.496094 16.640625 C 29.378906 19.257812 28.5 21.785156 26.960938 23.90625 L 25.878906 23.125 C 27.253906 21.230469 28.046875 18.976562 28.164062 16.640625 L 27.101562 16.640625 L 27.101562 15.308594 L 28.164062 15.308594 C 28.046875 12.96875 27.253906 10.714844 25.878906 8.820312 L 26.960938 8.039062 C 28.5 10.164062 29.382812 12.691406 29.496094 15.308594 L 30.613281 15.308594 Z M 23.699219 7.304688 L 27.800781 3.203125 L 28.742188 4.148438 L 24.644531 8.246094 Z M 8.246094 24.644531 L 4.148438 28.742188 L 3.203125 27.800781 L 7.304688 23.699219 Z M 21.128906 20.1875 L 28.742188 27.800781 L 27.800781 28.742188 L 20.1875 21.128906 Z M 10.816406 11.761719 L 3.203125 4.148438 L 4.148438 3.203125 L 11.761719 10.816406 Z M 22.335938 15.308594 L 22.335938 9.613281 L 16.640625 9.613281 L 16.640625 11.269531 L 15.308594 11.269531 L 15.308594 9.21875 C 15.308594 8.699219 15.726562 8.28125 16.246094 8.28125 L 22.730469 8.28125 C 23.246094 8.28125 23.667969 8.699219 23.667969 9.21875 L 23.667969 15.703125 C 23.664062 16.21875 23.246094 16.636719 22.730469 16.640625 L 20.65625 16.640625 L 20.65625 15.308594 Z M 9.613281 16.640625 L 9.613281 22.335938 L 15.308594 22.335938 L 15.308594 20.65625 L 16.640625 20.65625 L 16.640625 22.730469 C 16.636719 23.246094 16.21875 23.664062 15.703125 23.667969 L 9.21875 23.667969 C 8.703125 23.664062 8.285156 23.246094 8.28125 22.730469 L 8.28125 16.246094 C 8.28125 15.726562 8.703125 15.308594 9.21875 15.308594 L 11.289062 15.308594 L 11.289062 16.640625 Z M 13.125 18.820312 L 18.820312 18.820312 L 18.820312 13.125 L 13.125 13.125 Z M 20.152344 19.050781 L 20.152344 12.894531 C 20.152344 12.289062 19.660156 11.792969 19.050781 11.792969 L 12.894531 11.792969 C 12.289062 11.792969 11.792969 12.289062 11.792969 12.894531 L 11.792969 19.050781 C 11.792969 19.660156 12.289062 20.152344 12.894531 20.152344 L 19.050781 20.152344 C 19.34375 20.152344 19.625 20.035156 19.828125 19.828125 C 20.035156 19.621094 20.152344 19.34375 20.152344 19.050781 M 20.152344 19.050781 "/>
</svg>

<svg role="img" viewBox="0 0 32 32" height="32" width="32" xmlns="http://www.w3.org/2000/svg"><path d="M2.45 16.64H1.331v-1.33h1.117c.117-2.618 1-5.145 2.54-7.27l1.077.781a12.09 12.09 0 0 0-2.28 6.489h1.062v1.332H3.785c.117 2.336.91 4.59 2.281 6.484l-1.078.781a13.383 13.383 0 0 1-2.539-7.265m21.457 10.32a13.358 13.358 0 0 1-7.265 2.535v1.078h-1.332v-1.078a13.377 13.377 0 0 1-7.27-2.531l.781-1.082a12.09 12.09 0 0 0 6.489 2.281v-1.062h1.332v1.062a12.034 12.034 0 0 0 6.484-2.281ZM8.04 4.988a13.418 13.418 0 0 1 7.27-2.539V1.332h1.332v1.117c2.629.125 5.129.992 7.265 2.54l-.781 1.077a12.09 12.09 0 0 0-6.484-2.285v1.067H15.31V3.78c-2.336.117-4.59.914-6.489 2.285Zm22.574 11.653h-1.117a13.39 13.39 0 0 1-2.535 7.265l-1.082-.781a12.07 12.07 0 0 0 2.285-6.484h-1.062v-1.332h1.062A12.071 12.071 0 0 0 25.88 8.82l1.082-.78a13.382 13.382 0 0 1 2.535 7.269h1.117ZM23.7 7.305l4.102-4.102.941.945-4.097 4.098ZM8.246 24.645l-4.098 4.097-.945-.941 4.102-4.102Zm12.883-4.457 7.613 7.613-.941.941-7.613-7.613Zm-10.313-8.426L3.203 4.148l.945-.945 7.614 7.613Zm11.52 3.547V9.613H16.64v1.657h-1.332V9.219c0-.52.418-.938.937-.938h6.484c.516 0 .938.418.938.938v6.484a.945.945 0 0 1-.938.938h-2.074v-1.332ZM9.613 16.64v5.695h5.696v-1.68h1.332v2.074a.945.945 0 0 1-.938.938H9.22a.945.945 0 0 1-.938-.938v-6.484c0-.52.422-.937.938-.937h2.07v1.332Zm3.512 2.18h5.695v-5.696h-5.695Zm7.027.23v-6.156c0-.606-.492-1.102-1.101-1.102h-6.156c-.606 0-1.102.496-1.102 1.102v6.156c0 .61.496 1.101 1.102 1.101h6.156c.293 0 .574-.117.777-.324.207-.207.324-.484.324-.777m0 0" fill="rgb(83.137255%, 35.686275%, 2.745098%)" fill-rule="evenodd"/></svg>
